icons/folder-firestore.svg

<svg xmlns="http://www.w3.org/2000/svg" viewBox="0 0 16 16"><path id="folder" fill="#2196f3" d="m6.922 3.768-.644-.536A1 1 0 0 0 5.638 3H2a1 1 0 0 0-1 1v8a1 1 0 0 0 1 1h12a1 1 0 0 0 1-1V5a1 1 0 0 0-1-1H7.562a1 1 0 0 1-.64-.232"/><path id="motive" fill="#bbdefb" d="M12 5 8 7v2l4-2 4 2V7zm0 3-4 2v2l4-2 4 2v-2zm1.5 3.5L12 12v2l3.5-1.5z"/></svg>

<svg xmlns="http://www.w3.org/2000/svg" viewBox="0 0 16 16">
<path id="folder" fill="#2196f3" d="m6.922 3.768-.644-.536A1 1 0 0 0 5.638 3H2a1 1 0 0 0-1 1v8a1 1 0 0 0 1 1h12a1 1 0 0 0 1-1V5a1 1 0 0 0-1-1H7.562a1 1 0 0 1-.64-.232" />
<path id="motive" fill="#bbdefb" d="M 12 5 L 8 7 L 8 9 L 12 7 L 16 9 L 16 7 L 12 5 z M 12 8 L 8 10 L 8 12 L 12 10 L 16 12 L 16 10 L 12 8 z M 13.5 11.5 L 12 12 L 12 14 L 15.5 12.5 L 13.5 11.5 z " />
</svg>
